Yaru++/apps/symbolic/preferences-desktop-remote-desktop-symbolic.svg

<svg height="16" width="16" xmlns="http://www.w3.org/2000/svg"><g fill="#808080"><path d="m7 13.083984v.916016h2v-.916016zm-6 1.916016v1h14v-1z"/><path d="m555.99414 161c-1.2582.0145-2.17889-.0306-2.93164.38477-.37637.20766-.67323.55938-.83789.99804-.16467.43867-.22461.95958-.22461 1.61719v6c0 .65761.0599 1.17853.22461 1.61719.16467.43866.46152.79039.83789.99804.75275.41532 1.67345.3702 2.93164.38477h.004 8.0039.004c1.25819-.0145 2.17889.0306 2.93164-.38477.37637-.20766.67322-.55938.83789-.99804.16449-.43867.22443-.95958.22443-1.61719v-6c0-.65761-.0599-1.17852-.22461-1.61719-.16466-.43866-.46152-.79038-.83789-.99804-.75275-.41534-1.67344-.37025-2.93164-.38477h-.004-8.0039zm.006 1h8c1.25852.0147 2.08717.0598 2.45312.26172.18341.1012.28916.21274.38672.47266.09743.25991.16002.67323.16002 1.26562v6c0 .59239-.0626 1.00572-.16016 1.26562-.0976.25991-.20331.37147-.38672.47266-.36595.20191-1.1946.24701-2.45312.26172h-7.99414-.00586c-1.25853-.0147-2.08717-.0598-2.45312-.26172-.18341-.10119-.28916-.21275-.38672-.47266-.09757-.2599-.16016-.67323-.16016-1.26562v-6c0-.59239.0626-1.00572.16016-1.26562.0976-.25991.20331-.37147.38672-.47266.36595-.20191 1.19459-.24701 2.45312-.26172z" transform="translate(-552 -160)"/><g transform="matrix(.625 0 0 .625 -129.5 -160.875)"><path d="m215.99414 267c-1.25819.0146-2.17889-.0306-2.93164.38477-.37637.20765-.67322.55938-.83789.99804s-.22461.95958-.22461 1.61719v2c0 .65761.0599 1.17853.22461 1.61719.16467.43866.46152.79039.83789.99804.75275.41532 1.67345.3702 2.93164.38477h.004 2.0039.004c1.25819-.0146 2.17889.0306 2.93164-.38477.37637-.20765.67322-.55938.83789-.99804.16449-.43866.22443-.95958.22443-1.61719v-2c0-.65761-.0599-1.17852-.22461-1.61719-.16466-.43866-.46152-.79038-.83789-.99804-.75275-.41534-1.67344-.37025-2.93164-.38477h-.004-2.0039zm.006 1h.006 1.99386c1.25852.0147 2.08717.0598 2.45312.26172.18341.1012.28916.21274.38672.47266.09757.25991.16016.67323.16016 1.26562v2c0 .59239-.0626 1.00572-.16016 1.26562-.0976.25991-.20135.37147-.38476.47266-.36596.20191-1.19655.24698-2.45508.26172h-1.99414-.00586c-1.25853-.0147-2.08912-.0598-2.45508-.26172-.18341-.10119-.2872-.21275-.38476-.47266-.09757-.2599-.16016-.67323-.16016-1.26562v-2c0-.59239.0626-1.00572.16016-1.26562.0976-.25991.20135-.37147.38476-.47266.36596-.20191 1.19655-.24698 2.45508-.26172z"/><path d="m218.99414 262c-1.25819.0146-2.17889-.0306-2.93164.38477-.37637.20765-.67322.55938-.83789.99804s-.22461.95958-.22461 1.61719v1h1v-1c0-.59239.0626-1.00572.16016-1.26562.0976-.25991.20135-.37147.38476-.47266.36596-.20191 1.19655-.24698 2.45508-.26172h3.5 1.5c1.25852.0147 2.08717.0598 2.45312.26172.18341.1012.28916.21274.38672.47266.09757.25991.16016.67323.16016 1.26562v4c0 .59239-.0626 1.00572-.16016 1.26562-.0976.25991-.20135.37147-.38476.47266-.36682.20239-1.1974.24709-2.46094.26172h-.99414v1h1.00195.004c1.25819-.0146 2.17889.0306 2.93164-.38477.37637-.20765.67322-.55938.83789-.99804.16458-.43866.22452-.95958.22452-1.61719v-4c0-.65761-.0599-1.17852-.22461-1.61719-.16466-.43866-.46152-.79038-.83789-.99804-.75275-.41534-1.67344-.37025-2.93164-.38477h-.004-1.50195-3.50195z" opacity=".5"/></g></g></svg>

<?xml version="1.0" encoding="UTF-8" standalone="no"?>
<svg
   xmlns:dc="http://purl.org/dc/elements/1.1/"
   xmlns:cc="http://creativecommons.org/ns#"
   xmlns:rdf="http://www.w3.org/1999/02/22-rdf-syntax-ns#"
   xmlns:svg="http://www.w3.org/2000/svg"
   xmlns="http://www.w3.org/2000/svg"
   xmlns:sodipodi="http://sodipodi.sourceforge.net/DTD/sodipodi-0.dtd"
   xmlns:inkscape="http://www.inkscape.org/namespaces/inkscape"
   height="16"
   width="16"
   version="1.1"
   id="svg4"
   sodipodi:docname="user-desktop-symbolic.svg"
   inkscape:version="0.92.4 (5da689c313, 2019-01-14)">
  <metadata
     id="metadata10">
    <rdf:RDF>
      <cc:Work
         rdf:about="">
        <dc:format>image/svg+xml</dc:format>
        <dc:type
           rdf:resource="http://purl.org/dc/dcmitype/StillImage" />
        <dc:title></dc:title>
      </cc:Work>
    </rdf:RDF>
  </metadata>
  <defs
     id="defs8" />
  <sodipodi:namedview
     pagecolor="#ffffff"
     bordercolor="#666666"
     borderopacity="1"
     objecttolerance="10"
     gridtolerance="10"
     guidetolerance="10"
     inkscape:pageopacity="0"
     inkscape:pageshadow="2"
     inkscape:window-width="1920"
     inkscape:window-height="1016"
     id="namedview6"
     showgrid="false"
     inkscape:snap-nodes="false"
     inkscape:zoom="42.092592"
     inkscape:cx="2.682864"
     inkscape:cy="13.767268"
     inkscape:window-x="0"
     inkscape:window-y="27"
     inkscape:window-maximized="1"
     inkscape:current-layer="svg4" />
  <path
     style="line-height:normal;font-variant-ligatures:none;font-variant-position:normal;font-variant-caps:normal;font-variant-numeric:normal;font-variant-alternates:normal;font-feature-settings:normal;text-indent:0;text-align:start;text-decoration-line:none;text-decoration-style:solid;text-decoration-color:#000;text-transform:none;shape-padding:0;isolation:auto;mix-blend-mode:normal;marker:none;fill:#808080;fill-opacity:1"
     d="M 7 13.083984 L 7 14 L 9 14 L 9 13.083984 L 7 13.083984 z M 1 15 L 1 16 L 15 16 L 15 15 L 1 15 z "
     id="path2" />
  <g
     id="g880"
     transform="translate(4e-5,-6e-5)">
    <g
       transform="translate(-793.00024,207.00006)"
       style="display:inline"
       label="status"
       id="layer9" />
    <g
       transform="translate(-552.00004,-159.99994)"
       style="display:inline"
       id="layer2" />
    <g
       transform="translate(-552.00004,-159.99994)"
       style="display:inline"
       id="layer4" />
    <g
       transform="translate(-552.00004,-159.99994)"
       style="display:inline"
       id="g1812" />
    <g
       transform="translate(-552.00004,-159.99994)"
       style="display:inline"
       id="g6217" />
    <g
       transform="translate(-552.00004,-159.99994)"
       style="display:inline"
       id="layer3" />
    <g
       transform="translate(-552.00004,-159.99994)"
       style="display:inline"
       id="g1833">
      <path
         style="color:#000000;font-style:normal;font-variant:normal;font-weight:normal;font-stretch:normal;font-size:medium;line-height:normal;font-family:sans-serif;font-variant-ligatures:normal;font-variant-position:normal;font-variant-caps:normal;font-variant-numeric:normal;font-variant-alternates:normal;font-feature-settings:normal;text-indent:0;text-align:start;text-decoration:none;text-decoration-line:none;text-decoration-style:solid;text-decoration-color:#000000;letter-spacing:normal;word-spacing:normal;text-transform:none;writing-mode:lr-tb;direction:ltr;text-orientation:mixed;dominant-baseline:auto;baseline-shift:baseline;text-anchor:start;white-space:normal;shape-padding:0;clip-rule:nonzero;display:inline;overflow:visible;visibility:visible;opacity:1;isolation:auto;mix-blend-mode:normal;color-interpolation:sRGB;color-interpolation-filters:linearRGB;solid-color:#000000;solid-opacity:1;vector-effect:none;fill:#808080;fill-opacity:1;fill-rule:nonzero;stroke:none;stroke-width:1.00000012;stroke-linecap:butt;stroke-linejoin:miter;stroke-miterlimit:4;stroke-dasharray:none;stroke-dashoffset:0;stroke-opacity:1;marker:none;color-rendering:auto;image-rendering:auto;shape-rendering:auto;text-rendering:auto;enable-background:accumulate"
         id="path2164"
         d="m 555.99414,161 c -1.2582,0.0145 -2.17889,-0.0306 -2.93164,0.38477 -0.37637,0.20766 -0.67323,0.55938 -0.83789,0.99804 C 552.05994,162.82148 552,163.34239 552,164 v 6 c 0,0.65761 0.0599,1.17853 0.22461,1.61719 0.16467,0.43866 0.46152,0.79039 0.83789,0.99804 0.75275,0.41532 1.67345,0.3702 2.93164,0.38477 h 0.004 8.0039 0.004 c 1.25819,-0.0145 2.17889,0.0306 2.93164,-0.38477 0.37637,-0.20766 0.67322,-0.55938 0.83789,-0.99804 C 567.94006,171.17852 568,170.65761 568,170 v -6 c 0,-0.65761 -0.0599,-1.17852 -0.22461,-1.61719 -0.16466,-0.43866 -0.46152,-0.79038 -0.83789,-0.99804 -0.75275,-0.41534 -1.67344,-0.37025 -2.93164,-0.38477 h -0.004 -8.0039 z m 0.006,1 h 8 c 1.25852,0.0147 2.08717,0.0598 2.45312,0.26172 0.18341,0.1012 0.28916,0.21274 0.38672,0.47266 C 566.93741,162.99429 567,163.40761 567,164 v 6 c 0,0.59239 -0.0626,1.00572 -0.16016,1.26562 -0.0976,0.25991 -0.20331,0.37147 -0.38672,0.47266 C 566.08717,171.94019 565.25852,171.98529 564,172 H 556.00586 556 c -1.25853,-0.0147 -2.08717,-0.0598 -2.45312,-0.26172 -0.18341,-0.10119 -0.28916,-0.21275 -0.38672,-0.47266 C 553.06259,171.00572 553,170.59239 553,170 v -6 c 0,-0.59239 0.0626,-1.00572 0.16016,-1.26562 0.0976,-0.25991 0.20331,-0.37147 0.38672,-0.47266 C 553.91283,162.05981 554.74147,162.01471 556,162 Z"
         inkscape:connector-curvature="0" />
    </g>
    <g
       transform="translate(-552.00004,-159.99994)"
       style="display:inline"
       id="layer1" />
    <g
       id="layer1-7"
       transform="matrix(0.625,0,0,0.625,-129.50004,-160.87494)">
      <path
         inkscape:connector-curvature="0"
         d="m 215.99414,267 c -1.25819,0.0146 -2.17889,-0.0306 -2.93164,0.38477 -0.37637,0.20765 -0.67322,0.55938 -0.83789,0.99804 C 212.05994,268.82147 212,269.34239 212,270 v 2 c 0,0.65761 0.0599,1.17853 0.22461,1.61719 0.16467,0.43866 0.46152,0.79039 0.83789,0.99804 0.75275,0.41532 1.67345,0.3702 2.93164,0.38477 h 0.004 2.0039 0.004 c 1.25819,-0.0146 2.17889,0.0306 2.93164,-0.38477 0.37637,-0.20765 0.67322,-0.55938 0.83789,-0.99804 C 221.94006,273.17853 222,272.65761 222,272 v -2 c 0,-0.65761 -0.0599,-1.17852 -0.22461,-1.61719 -0.16466,-0.43866 -0.46152,-0.79038 -0.83789,-0.99804 -0.75275,-0.41534 -1.67344,-0.37025 -2.93164,-0.38477 h -0.004 -2.0039 z m 0.006,1 h 0.006 H 218 c 1.25852,0.0147 2.08717,0.0598 2.45312,0.26172 0.18341,0.1012 0.28916,0.21274 0.38672,0.47266 C 220.93741,268.99429 221,269.40761 221,270 v 2 c 0,0.59239 -0.0626,1.00572 -0.16016,1.26562 -0.0976,0.25991 -0.20135,0.37147 -0.38476,0.47266 C 220.08912,273.94019 219.25853,273.98526 218,274 H 216.00586 216 c -1.25853,-0.0147 -2.08912,-0.0598 -2.45508,-0.26172 -0.18341,-0.10119 -0.2872,-0.21275 -0.38476,-0.47266 C 213.06259,273.00572 213,272.59239 213,272 v -2 c 0,-0.59239 0.0626,-1.00572 0.16016,-1.26562 0.0976,-0.25991 0.20135,-0.37147 0.38476,-0.47266 C 213.91088,268.05981 214.74147,268.01474 216,268 Z"
         style="fill:#808080"
         id="path840" />
      <path
         inkscape:connector-curvature="0"
         d="m 218.99414,262 c -1.25819,0.0146 -2.17889,-0.0306 -2.93164,0.38477 -0.37637,0.20765 -0.67322,0.55938 -0.83789,0.99804 C 215.05994,263.82147 215,264.34239 215,265 v 1 h 1 v -1 c 0,-0.59239 0.0626,-1.00572 0.16016,-1.26562 0.0976,-0.25991 0.20135,-0.37147 0.38476,-0.47266 C 216.91088,263.05981 217.74147,263.01474 219,263 h 3.5 1.5 c 1.25852,0.0147 2.08717,0.0598 2.45312,0.26172 0.18341,0.1012 0.28916,0.21274 0.38672,0.47266 C 226.93741,263.99429 227,264.40761 227,265 v 4 c 0,0.59239 -0.0626,1.00572 -0.16016,1.26562 -0.0976,0.25991 -0.20135,0.37147 -0.38476,0.47266 -0.36682,0.20239 -1.1974,0.24709 -2.46094,0.26172 H 223 v 1 h 1.00195 0.004 c 1.25819,-0.0146 2.17889,0.0306 2.93164,-0.38477 0.37637,-0.20765 0.67322,-0.55938 0.83789,-0.99804 C 227.94006,270.17853 228,269.65761 228,269 v -4 c 0,-0.65761 -0.0599,-1.17852 -0.22461,-1.61719 -0.16466,-0.43866 -0.46152,-0.79038 -0.83789,-0.99804 -0.75275,-0.41534 -1.67344,-0.37025 -2.93164,-0.38477 h -0.004 -1.50195 -3.50195 z"
         style="opacity:0.5;fill:#808080"
         id="path842" />
    </g>
  </g>
</svg>
